X:1
T: Ballinasloe Fair
C:
R:Reel
Q:232
K:Am
M:4/4
L:1/8
cB|AG AB cB cA|GE CE GF GB|AG AB cB ca|ge dB ce dB|
AG AB cB cA|GE CE GF GB|AG AB cB ca|ge de cd ef|
|:gc ((3cBc) gc ac|gc ((3cBc) Bc df|gc ((3cBc) ag aa|ge de cd ef|
gc ((3cBc) gc ac|gc ((3cBc) Bc dB|AG AB cd ea|1ge de ce df:|2ge de ce dB|
AG AB cB cA|GE CE GF GB|AG AB cB ca|ge dB ce dB|
AG AB cB cA|GE CE GF GB|AG AB cB ca|ge de cAA2||
